polaris-icons/icons/newicons/MinimizeMajor.svg

<svg width="20" height="20" viewBox="0 0 20 20" fill="none" xmlns="http://www.w3.org/2000/svg">
<path d="M14.25 9.5C14.6642 9.5 15 9.16421 15 8.75C15 8.33579 14.6642 8 14.25 8H13.0607L16.7803 4.28033C17.0732 3.98744 17.0732 3.51256 16.7803 3.21967C16.4874 2.92678 16.0126 2.92678 15.7197 3.21967L12 6.93934V5.75C12 5.33579 11.6642 5 11.25 5C10.8358 5 10.5 5.33579 10.5 5.75L10.5 8.75C10.5 9.16421 10.8358 9.5 11.25 9.5H14.25Z" fill="black"/>
<path d="M5.75 10.5C5.33579 10.5 5 10.8358 5 11.25C5 11.6642 5.33579 12 5.75 12H6.93934L3.21967 15.7197C2.92678 16.0126 2.92678 16.4874 3.21967 16.7803C3.51256 17.0732 3.98744 17.0732 4.28033 16.7803L8 13.0607V14.25C8 14.6642 8.33579 15 8.75 15C9.16421 15 9.5 14.6642 9.5 14.25V11.25C9.5 10.8358 9.16421 10.5 8.75 10.5H5.75Z" fill="black"/>
</svg>

<svg viewBox="0 0 20 20" fill="none" xmlns="http://www.w3.org/2000/svg"><path d="M14.25 9.5a.75.75 0 0 0 0-1.5h-1.19l3.72-3.72a.75.75 0 0 0-1.06-1.06l-3.72 3.72v-1.19a.75.75 0 0 0-1.5 0v3c0 .414.336.75.75.75h3Z" fill="#5C5F62"/><path d="M5.75 10.5a.75.75 0 0 0 0 1.5h1.19l-3.72 3.72a.75.75 0 1 0 1.06 1.06l3.72-3.72v1.19a.75.75 0 0 0 1.5 0v-3a.75.75 0 0 0-.75-.75h-3Z" fill="#5C5F62"/></svg>
